X:1
T:Title
%%score { ( 1 3 5 ) | ( 2 4 ) }
L:1/8
Q:1/4=116
M:3/4
K:Ab
V:1 treble nm="Grand Piano"
V:3 treble 
V:5 treble 
V:2 treble 
V:4 treble 
V:1
 E2 A2 B2 | c2 c2 E2 | F2 [FA]3 F | E6 | B2 G2 E2 | [Gd]2 [Ac]2 B2 | B2 A2 C2 | E6 | E2 E2 E2 | %9
w: D.~B.~Towner * *|||||||||
 F2 F2 [DEG]2 | [CEA]2 [A,EA]3 B | c6 | [EB]2 [F=d]2 [Fc]2 | [Ec]2 [EB]2 [EB]2 | %14
w: |||||
 [=DA]2 [DG]3 [DF] |[M:7/8] E-E-E- E- E3 |[M:3/4] z6 | c6 | d2 A2 B2 | c2- [Ac-]2 [Ac]2 | %20
w: ||||||
 e2 B2 c2 | d6 | d2 z2 z2 | c6 | E2 A2 B2 | c2 c2 [EAc]2 | [DAd]2 [DA]2 [B,FB]2 | %27
w: |||||||
[M:9/8] [=Ec]8- [Ec] |[M:3/4] [FB]2 [FB]2 [FB]2 |[M:4/4] [Ec]2 [Ae]2- [Ae] [Af]3 | %30
w: |||
[M:7/8] [Ac]2 [Ac]3 [DGB]2 |[M:3/4] [CEA]6 |] %32
w: ||
V:2
 [A,C]2 [A,CE]2 [A,DE]2 | [A,EA]2 [A,EA]2[K:bass] [C,A,]2 | [D,A,D]2 [D,D]3 [F,A,D] | [A,C]6 | %4
 [E,G,D]2 [E,B,D]2 [E,B,D]2 | [E,B,]2 [E,E]2 [G,DE]2 | [A,DE]2 [A,CE]2 A,2 | [A,C]6 | %8
 [A,C]2 [A,C]2 [A,C]2 | [D,A,D]2 [D,A,D]2 B,,2 | A,,2 C,3 [E,G,E] | [A,E]6 | %12
 [B,,G,]2 [B,,B,]2 [B,,A,]2 | [B,,A,]2 [B,,G,]2 [B,,G,]2 | [B,,F,]2 [B,,B,]3 [B,,A,] | %15
[M:7/8] E,2- [E,-A,]2 [E,B,]3 |[M:3/4] A,,2 [C,A,]2 [E,G,]2 | A,6 | [D,A,]2 [D,A,]2 [D,A,]2 | %19
 A,2 z2 z2 | [E,D]2 [E,D]2 [E,C]2 | E2 z2 z2 | [E,E]2 [E,E]2 [E,E]2 | A2 z2 z2 | %24
 [A,C]2 [A,CE]2 [A,DE]2 | [A,EA]2 [A,EA]2[K:bass] _G,2 | F,2 F,2 D,2 |[M:9/8] [C,G,]8- [C,G,] | %28
[M:3/4] [D,F,]2 [D,F,]2 [D,F,]2 |[M:4/4] [C,A,]2 [C,A,]2- [C,A,] [D,A,]3 | %30
[M:7/8] [E,E]2 [E,E]3 z z/ E/ |[M:3/4] A,,6 |] %32
V:3
 x6 | x6 | x6 | x6 | x6 | x6 | x6 | x6 | x6 | x6 | x6 | x6 | x6 | x6 | x6 |[M:7/8] z B, C2 D3 | %16
[M:3/4] C2 A2 B2 | z2 A2 G2 | F6 | E2 z2 z2 | G6 | z2 G2 B2 | G2- [G-c]2 [GB]2 | z2 A2 F2 | x6 | %25
 x6 | x6 |[M:9/8] x9 |[M:3/4] x6 |[M:4/4] x8 |[M:7/8] x7 |[M:3/4] x6 |] %32
V:4
 x6 | x4[K:bass] x2 | x6 | x6 | x6 | x6 | x6 | x6 | x6 | x6 | x6 | x6 | x6 | x6 | x6 | %15
[M:7/8] G,2 z z z z2 |[M:3/4] x6 | x6 | x6 | A,,2- [A,,-F,]2 [A,,E,]2 | x6 | [E,-B,]4 [E,G,]2 | %22
 x6 | [A,E]6 | x6 | x4[K:bass] x2 | x6 |[M:9/8] x9 |[M:3/4] x6 |[M:4/4] x8 |[M:7/8] z z z z2 E,2 | %31
[M:3/4] x6 |] %32
V:5
 x6 | x6 | x6 | x6 | x6 | x6 | x6 | x6 | x6 | x6 | x6 | x6 | x6 | x6 | x6 |[M:7/8] x7 | %16
[M:3/4] E6- | E2 z2 z2 | x6 | x6 | x6 | x6 | x6 | x6 | x6 | x6 | x6 |[M:9/8] x9 |[M:3/4] x6 | %29
[M:4/4] x8 |[M:7/8] x7 |[M:3/4] x6 |] %32

